svg/fluentui-system-icons/ic_fluent_calendar_arrow_counterclockwise_48_regular.svg

<svg width="48" height="48" viewBox="0 0 48 48" fill="none" xmlns="http://www.w3.org/2000/svg">
<path d="M12.25 6C8.79824 6 6.00002 8.79822 6.00002 12.25V17.9953L4.07315 16.3093C3.5536 15.8547 2.7639 15.9073 2.3093 16.4269C1.85469 16.9464 1.90734 17.7361 2.42689 18.1907L6.42689 21.6907C6.89817 22.1031 7.60187 22.1031 8.07315 21.6907L12.0731 18.1907C12.5689 17.757 12.6395 17.0181 12.2501 16.5C12.2314 16.4751 12.2116 16.4507 12.1908 16.4269C12.1482 16.3782 12.1026 16.3336 12.0546 16.2931C11.5905 15.9019 10.8977 15.8973 10.4269 16.3093L8.50002 17.9953V12.25C8.50002 10.1789 10.1789 8.5 12.25 8.5H35.75C37.8211 8.5 39.5 10.1789 39.5 12.25V14H11.5V14.0097C12.3181 14.0727 13.113 14.4437 13.6959 15.1099C14.0571 15.5227 14.2951 16.001 14.413 16.5H39.5V35.75C39.5 37.8211 37.8211 39.5 35.75 39.5H12.25C10.1789 39.5 8.50002 37.8211 8.50002 35.75V27.25C8.50002 26.5596 7.94037 26 7.25002 26C6.55966 26 6.00002 26.5596 6.00002 27.25V35.75C6.00002 39.2018 8.79824 42 12.25 42H35.75C39.2018 42 42 39.2018 42 35.75V12.25C42 8.79822 39.2018 6 35.75 6H12.25ZM18 23.5C18 24.8807 16.8807 26 15.5 26C14.1193 26 13 24.8807 13 23.5C13 22.1193 14.1193 21 15.5 21C16.8807 21 18 22.1193 18 23.5ZM24 26C25.3807 26 26.5 24.8807 26.5 23.5C26.5 22.1193 25.3807 21 24 21C22.6193 21 21.5 22.1193 21.5 23.5C21.5 24.8807 22.6193 26 24 26ZM35 23.5C35 24.8807 33.8807 26 32.5 26C31.1193 26 30 24.8807 30 23.5C30 22.1193 31.1193 21 32.5 21C33.8807 21 35 22.1193 35 23.5ZM15.5 34C16.8807 34 18 32.8807 18 31.5C18 30.1193 16.8807 29 15.5 29C14.1193 29 13 30.1193 13 31.5C13 32.8807 14.1193 34 15.5 34ZM26.5 31.5C26.5 32.8807 25.3807 34 24 34C22.6193 34 21.5 32.8807 21.5 31.5C21.5 30.1193 22.6193 29 24 29C25.3807 29 26.5 30.1193 26.5 31.5Z" fill="#212121"/>
</svg>

<svg xmlns="http://www.w3.org/2000/svg" width="48" height="48"><path d="M12.25 6A6.25 6.25 0 0 0 6 12.25v5.745L4.073 16.31a1.25 1.25 0 1 0-1.646 1.882l4 3.5a1.25 1.25 0 0 0 1.646 0l4-3.5a1.25 1.25 0 1 0-1.646-1.882L8.5 17.995V12.25a3.75 3.75 0 0 1 3.75-3.75h23.5a3.75 3.75 0 0 1 3.75 3.75V14h-28v.01a3.24 3.24 0 0 1 2.196 1.1c.361.413.6.891.717 1.39H39.5v19.25a3.75 3.75 0 0 1-3.75 3.75h-23.5a3.75 3.75 0 0 1-3.75-3.75v-8.5a1.25 1.25 0 1 0-2.5 0v8.5A6.25 6.25 0 0 0 12.25 42h23.5A6.25 6.25 0 0 0 42 35.75v-23.5A6.25 6.25 0 0 0 35.75 6h-23.5ZM18 23.5a2.5 2.5 0 1 1-5 0 2.5 2.5 0 0 1 5 0Zm6 2.5a2.5 2.5 0 1 0 0-5 2.5 2.5 0 0 0 0 5Zm11-2.5a2.5 2.5 0 1 1-5 0 2.5 2.5 0 0 1 5 0ZM15.5 34a2.5 2.5 0 1 0 0-5 2.5 2.5 0 0 0 0 5Zm11-2.5a2.5 2.5 0 1 1-5 0 2.5 2.5 0 0 1 5 0Z"/></svg>
